material/.icons/material/island.svg

<svg xmlns="http://www.w3.org/2000/svg" viewBox="0 0 24 24"><path d="M20 20c-1.39 0-2.78-.47-4-1.33-2.44 1.71-5.56 1.71-8 0C6.78 19.53 5.39 20 4 20H2v2h2c1.37 0 2.74-.35 4-1 2.5 1.3 5.5 1.3 8 0 1.26.65 2.62 1 4 1h2v-2h-2m.78-1H20c-1.18 0-2.36-.4-3.42-1.15l-.58-.4-.58.4c-1.03.72-2.21 1.1-3.42 1.1-1.23 0-2.41-.38-3.44-1.1l-.56-.4-.57.4C6.36 18.6 5.18 19 4 19h-.78c.53-1.46 2.36-4 8.78-4 2 0 3 .24 3 .24.68-1.37 1.83-4.47 1-8.42l1.06.71c.33 1.43.94 4.22-.26 8.12 2.63.85 3.62 2.35 3.98 3.35M22 7.59c-.79-1.09-2-1.88-3.42-2.06.12.14.23.3.34.47a5.03 5.03 0 01-.45 5.95c.59-1.45.53-3.16-.39-4.59-.08-.08-.12-.16-.18-.25-.4-.58-.94-1.05-1.52-1.39-2.03.65-3.5 2.55-3.5 4.78 0 .53.08 1.03.22 1.5-.6-.83-.94-1.83-.94-2.93 0-1.66.8-3.12 2.04-4.04-1.04-.08-2.11.15-3.06.75-.44.27-.82.6-1.14.98.39-.94 1.05-1.76 2-2.36a4.85 4.85 0 013.39-.71 5.2 5.2 0 00-1.06-1.09c-.41-.31-.86-.55-1.33-.72 1 .03 2.04.36 2.91 1.01.44.33.79.73 1.09 1.16.06 0 .12-.01.19-.01A5.03 5.03 0 0122 7.59z"/></svg>

<?xml version="1.0" encoding="UTF-8"?><!DOCTYPE svg PUBLIC "-//W3C//DTD SVG 1.1//EN" "http://www.w3.org/Graphics/SVG/1.1/DTD/svg11.dtd"><svg xmlns="http://www.w3.org/2000/svg" xmlns:xlink="http://www.w3.org/1999/xlink" version="1.1" id="mdi-island" width="24" height="24" viewBox="0 0 24 24"><path d="M20 20C18.61 20 17.22 19.53 16 18.67C13.56 20.38 10.44 20.38 8 18.67C6.78 19.53 5.39 20 4 20H2V22H4C5.37 22 6.74 21.65 8 21C10.5 22.3 13.5 22.3 16 21C17.26 21.65 18.62 22 20 22H22V20H20M20.78 19H20C18.82 19 17.64 18.6 16.58 17.85L16 17.45L15.42 17.85C14.39 18.57 13.21 18.95 12 18.95C10.77 18.95 9.59 18.57 8.56 17.85L8 17.45L7.43 17.85C6.36 18.6 5.18 19 4 19H3.22C3.75 17.54 5.58 15 12 15C14 15 15 15.24 15 15.24C15.68 13.87 16.83 10.77 16 6.82L17.06 7.53C17.39 8.96 18 11.75 16.8 15.65C19.43 16.5 20.42 18 20.78 19M22 7.59C21.21 6.5 20 5.71 18.58 5.53C18.7 5.67 18.81 5.83 18.92 6C20.12 7.91 19.87 10.32 18.47 11.95C19.06 10.5 19 8.79 18.08 7.36C18 7.28 17.96 7.2 17.9 7.11C17.5 6.53 16.96 6.06 16.38 5.72C14.35 6.37 12.88 8.27 12.88 10.5C12.88 11.03 12.96 11.53 13.1 12C12.5 11.17 12.16 10.17 12.16 9.07C12.16 7.41 12.96 5.95 14.2 5.03C13.16 4.95 12.09 5.18 11.14 5.78C10.7 6.05 10.32 6.38 10 6.76C10.39 5.82 11.05 5 12 4.4C13.04 3.74 14.25 3.5 15.39 3.69C15.1 3.29 14.75 2.92 14.33 2.6C13.92 2.29 13.47 2.05 13 1.88C14 1.91 15.04 2.24 15.91 2.89C16.35 3.22 16.7 3.62 17 4.05C17.06 4.05 17.12 4.04 17.19 4.04C19.45 4.04 21.37 5.53 22 7.59Z" /></svg>
